!!!OTL: Tujia changqi jingsaige
!!!ARE: Asia, China,ÿHubei Laifeng
!! I, 396
!!!SCT: C2145
!!!YEM: Copyright 1995, estate of Helmut Schaffrath.
**kern
*ICvox
*Ivox
*M2/4
*k[f#c#g#d#]
*E:
{8ee
8cc#
8ee
8cc#
=1
4.b
8cc#
=2
16ff#
16gg#
8ee
16ff#
16gg#
8ee
=3
2ff#}
=4
{8ff#
16ee
16cc#
8ff#
16ee
16cc#
=5
4ff#
8ee
8cc#
=6
8b
8b
8cc#
8b
=7
2b}
=8
{8ee
8cc#
8ee
8cc#
=9
4.b
8cc#
=10
8ff#
4ee
8cc#
=11
8ee
8cc#
4b}
=12
{8ee
8cc#
8ee
8cc#
=13
4.b
8cc#
=14
16ff#
16gg#
8ee
16ff#
16gg#
8ee
=15
2ff#}
=16
{8ff#
16ee
16cc#
8ff#
16ee
16cc#
=17
4ff#
8ee
8cc#
=18
8b
8b
8cc#
8b
=19
2b}
==
!!!AGN: Shange, Wujuzi
!! Tujia
!!!ONB: ESAC (Essen Associative Code) Database: SENGANSU
!!!AMT: simple duple
!!!AIN: vox
!!!EED: Helmut Schaffrath
!!!EEV: 1.0
*-
